src/assets/github.svg

<svg viewBox="0 0 32 32" xmlns="http://www.w3.org/2000/svg">
<path fill-rule="evenodd" clip-rule="evenodd" d="M15.5 2C7.48875 2 1 8.42347 1 16.3541C1 22.7058 5.15062 28.0707 10.9144 29.9726C11.6394 30.0982 11.9112 29.6676 11.9112 29.2908C11.9112 28.9498 11.8931 27.8195 11.8931 26.6173C8.25 27.2812 7.3075 25.7381 7.0175 24.9307C6.85437 24.518 6.1475 23.2441 5.53125 22.9032C5.02375 22.634 4.29875 21.9702 5.51313 21.9522C6.655 21.9343 7.47063 22.9929 7.7425 23.4235C9.0475 25.5946 11.1319 24.9845 11.9656 24.6077C12.0925 23.6747 12.4731 23.0467 12.89 22.6879C9.66375 22.329 6.2925 21.091 6.2925 15.6005C6.2925 14.0395 6.85438 12.7476 7.77875 11.7429C7.63375 11.384 7.12625 9.91271 7.92375 7.93901C7.92375 7.93901 9.13813 7.56222 11.9112 9.41031C13.0712 9.08734 14.3038 8.92586 15.5363 8.92586C16.7688 8.92586 18.0013 9.08734 19.1613 9.41031C21.9344 7.54428 23.1488 7.93901 23.1488 7.93901C23.9463 9.91271 23.4388 11.384 23.2938 11.7429C24.2181 12.7476 24.78 14.0216 24.78 15.6005C24.78 21.1089 21.3906 22.329 18.1644 22.6879C18.69 23.1364 19.1431 23.9977 19.1431 25.3434C19.1431 27.2632 19.125 28.8063 19.125 29.2908C19.125 29.6676 19.3969 30.1161 20.1219 29.9726C25.8494 28.0707 30 22.6879 30 16.3541C30 8.42347 23.5113 2 15.5 2Z" 
  fill="currentColor"
/>
</svg>

<svg viewBox="0 0 32 32" xmlns="http://www.w3.org/2000/svg"><path fill-rule="evenodd" clip-rule="evenodd" d="M15.5 2C7.489 2 1 8.423 1 16.354c0 6.352 4.15 11.717 9.914 13.619.725.125.997-.305.997-.682 0-.341-.018-1.471-.018-2.674-3.643.664-4.586-.879-4.876-1.686-.163-.413-.87-1.687-1.486-2.028-.507-.269-1.232-.933-.018-.95 1.142-.019 1.958 1.04 2.23 1.47 1.304 2.172 3.389 1.562 4.223 1.185.127-.933.507-1.561.924-1.92-3.226-.359-6.598-1.597-6.598-7.087 0-1.562.562-2.853 1.487-3.858-.145-.359-.653-1.83.145-3.804 0 0 1.214-.377 3.987 1.471a13.584 13.584 0 0 1 3.625-.484c1.233 0 2.465.161 3.625.484C21.934 7.544 23.15 7.94 23.15 7.94c.797 1.974.29 3.445.145 3.804.924 1.005 1.486 2.279 1.486 3.857 0 5.509-3.39 6.729-6.616 7.088.526.448.98 1.31.98 2.655 0 1.92-.019 3.463-.019 3.948 0 .377.272.825.997.682C25.849 28.07 30 22.688 30 16.354 30 8.424 23.511 2 15.5 2Z" fill="currentColor"/></svg>
